X:8264
T:The admiral's hornpipe
C:anon.
O:England
R:Hornpipe
Z:Transcribed by Frank Nordberg - http://www.musicaviva.com
F:http://abc.musicaviva.com/tunes/england/admirals-hornpipe.abc
%Posted November 22nd 2001 at abcusers by Frank Nordberg.
M:2/4
L:1/16
K:F
D|FGAB AGFA|G2D2 D3D|FGAB AGFA|B2G2 G3G|
FGAB AGFA|G2D2 B3G|FGAB AGFA|G2F2 F2z2|
F3G AGFA|GFGA B2z2|G3A BAGB|AGFG A2z2|
F3G AGFA|GFGA B2G2|F2AG F2AF|DFGA BAGA|
FGAB AGFA|G2D2 D3D|FGAB AGFA|B2G2 G3G|
FGAB AGFA|G2D2 B3G|FGAB AGFA|G2F2 F2z|]
W:
W:
W:  From Musica Viva - http://www.musicaviva.com
W:  the Internet center for free sheet music downloads.
